X: 9
T: Farewell To Whiskey
R: polka
M: 2/4
L: 1/8
K: Gmaj
|: G/E/ | DG BA/G/ | AE E>G | DG BA/G/ | dB B>d |
eg dB | c/B/A/G/ AB | DG B/A/G/A/ | BG G :|
|: B/c/ | dB gB | c/B/A/G/ AB/c/ | dB gd | eg g>d |
eg dB | c/B/A/G/ AB | DG B/A/G/A/ | BG G :|


Tune 1529	Setting 14929

